X:3435
T: La Ricoise
O:england
M:3/8
L:1/16
K:C
g2|egfefd|g2efg2|egfefd|e2c2g2|\
egfefd|g2efg2|egfefd|c4:|
g2|egfefd|c2e2c2|BcdBde|f2d2g2|\
egfefd|c2e2c2|BcdedB|c4:|


